src/icons/delete.icon.svg

<svg width="24px" height="24px" viewBox="0 0 24 24" version="1.1" xmlns="http://www.w3.org/2000/svg" xmlns:xlink="http://www.w3.org/1999/xlink">
    <!-- Generator: Sketch 49.2 (51160) - http://www.bohemiancoding.com/sketch -->
    <title>IconDelete</title>
    <desc>Created with Sketch.</desc>
    <defs></defs>
    <g id="Page-1" stroke="none" stroke-width="1" fill="none" fill-rule="evenodd">
        <path d="M7,19 C7,20.1 7.9,21 9,21 L15,21 C16.1,21 17,20.1 17,19 L18,7 L6,7 L7,19 Z M17,4 L15.5,4 L14.5,3 L9.5,3 L8.5,4 L7,4 C5.895,4 5,4.895 5,6 L19,6 C19,4.895 18.105,4 17,4 Z" id="Page-1" fill="currentColor"></path>
    </g>
</svg>

<svg xmlns="http://www.w3.org/2000/svg" viewBox="0 0 24 24"><path d="M7 19c0 1.1.9 2 2 2h6c1.1 0 2-.9 2-2l1-12H6l1 12zM17 4h-1.5l-1-1h-5l-1 1H7a2 2 0 00-2 2h14a2 2 0 00-2-2z" fill="currentColor" fill-rule="evenodd"/></svg>
